packages/elvis-assets-icons/icons/svg/src/renewable_energy.svg

<svg width="24" height="24" viewBox="0 0 24 24" fill="none" xmlns="http://www.w3.org/2000/svg">
<g clip-path="url(#clip0)">
<path d="M12.746 22.5C8.811 22.5 5.24 20.33 3.428 16.836C3.336 16.658 3.318 16.455 3.379 16.264C3.44 16.073 3.571 15.917 3.749 15.825C3.855 15.77 3.975 15.741 4.094 15.741C4.375 15.741 4.63 15.896 4.76 16.146C6.313 19.14 9.373 21 12.746 21C12.975 21 13.208 20.991 13.444 20.974C13.462 20.973 13.481 20.972 13.5 20.972C13.89 20.972 14.219 21.277 14.247 21.667C14.262 21.867 14.197 22.06 14.067 22.212C13.937 22.364 13.754 22.455 13.554 22.47C13.281 22.49 13.011 22.5 12.75 22.5H12.746Z" fill="black"/>
<path d="M20.967 7.50099C20.709 7.50099 20.473 7.37099 20.334 7.15499C18.945 4.97899 16.685 3.50399 14.134 3.10599C13.726 3.04299 13.445 2.65799 13.508 2.24999C13.566 1.88199 13.878 1.61499 14.25 1.61499C14.287 1.61499 14.325 1.61799 14.363 1.62399C17.34 2.08799 19.977 3.80899 21.598 6.34799C21.82 6.69699 21.718 7.16099 21.369 7.38399C21.25 7.45999 21.11 7.50099 20.967 7.50099Z" fill="black"/>
<path d="M6.74902 9.75C5.09502 9.75 3.74902 8.404 3.74902 6.75C3.74902 5.096 5.09502 3.75 6.74902 3.75C8.40302 3.75 9.74902 5.096 9.74902 6.75C9.74902 8.404 8.40302 9.75 6.74902 9.75ZM6.74902 5.25C5.92202 5.25 5.24902 5.923 5.24902 6.75C5.24902 7.577 5.92202 8.25 6.74902 8.25C7.57602 8.25 8.24902 7.577 8.24902 6.75C8.24902 5.923 7.57602 5.25 6.74902 5.25Z" fill="black"/>
<path d="M6.74902 3C6.33502 3 5.99902 2.664 5.99902 2.25V0.75C5.99902 0.336 6.33502 0 6.74902 0C7.16302 0 7.49902 0.336 7.49902 0.75V2.25C7.49902 2.664 7.16202 3 6.74902 3Z" fill="black"/>
<path d="M11.249 7.5C10.835 7.5 10.499 7.164 10.499 6.75C10.499 6.336 10.835 6 11.249 6H12.749C13.163 6 13.499 6.336 13.499 6.75C13.499 7.164 13.163 7.5 12.749 7.5H11.249Z" fill="black"/>
<path d="M6.74902 13.5C6.33502 13.5 5.99902 13.164 5.99902 12.75V11.25C5.99902 10.836 6.33502 10.5 6.74902 10.5C7.16302 10.5 7.49902 10.836 7.49902 11.25V12.75C7.49902 13.164 7.16202 13.5 6.74902 13.5Z" fill="black"/>
<path d="M0.749023 7.5C0.335023 7.5 -0.000976562 7.164 -0.000976562 6.75C-0.000976562 6.336 0.335023 6 0.749023 6H2.24902C2.66302 6 2.99902 6.336 2.99902 6.75C2.99902 7.164 2.66202 7.5 2.24902 7.5H0.749023Z" fill="black"/>
<path d="M3.56698 4.31808C3.36698 4.31808 3.17798 4.24008 3.03698 4.09808L1.97598 3.03708C1.83398 2.89508 1.75598 2.70708 1.75598 2.50708C1.75598 2.30708 1.83398 2.11808 1.97598 1.97708C2.11698 1.83508 2.30598 1.75708 2.50598 1.75708C2.70598 1.75708 2.89498 1.83508 3.03598 1.97708L4.09698 3.03808C4.23898 3.18008 4.31698 3.36808 4.31698 3.56808C4.31698 3.76808 4.23898 3.95708 4.09698 4.09808C3.95498 4.24008 3.76698 4.31808 3.56698 4.31808Z" fill="black"/>
<path d="M9.93103 4.31808C9.73103 4.31808 9.54203 4.24008 9.40103 4.09808C9.25903 3.95708 9.18103 3.76808 9.18103 3.56808C9.18103 3.36808 9.25903 3.17908 9.40103 3.03808L10.462 1.97708C10.604 1.83508 10.792 1.75708 10.992 1.75708C11.192 1.75708 11.381 1.83508 11.522 1.97708C11.664 2.11808 11.742 2.30708 11.742 2.50708C11.742 2.70708 11.664 2.89608 11.522 3.03708L10.461 4.09808C10.319 4.24008 10.131 4.31808 9.93103 4.31808Z" fill="black"/>
<path d="M10.9921 11.7429C10.7921 11.7429 10.6031 11.6649 10.4621 11.5229L9.40005 10.4619C9.25805 10.3209 9.18005 10.1319 9.18005 9.93189C9.18005 9.73188 9.25805 9.54289 9.40005 9.40189C9.54105 9.25989 9.73005 9.18188 9.93005 9.18188C10.1301 9.18188 10.3191 9.25989 10.4601 9.40189L11.5211 10.4629C11.6631 10.6039 11.7411 10.7929 11.7411 10.9929C11.7411 11.1929 11.6631 11.3819 11.5211 11.5229C11.3801 11.6649 11.1921 11.7429 10.9921 11.7429Z" fill="black"/>
<path d="M2.50598 11.7429C2.30598 11.7429 2.11698 11.6649 1.97598 11.5229C1.83398 11.3819 1.75598 11.1929 1.75598 10.9929C1.75598 10.7929 1.83398 10.6039 1.97598 10.4629L3.03698 9.40189C3.17798 9.25989 3.36698 9.18188 3.56698 9.18188C3.76698 9.18188 3.95598 9.25989 4.09698 9.40189C4.23898 9.54289 4.31698 9.73188 4.31698 9.93189C4.31698 10.1319 4.23898 10.3209 4.09698 10.4619L3.03598 11.5229C2.89498 11.6649 2.70598 11.7429 2.50598 11.7429Z" fill="black"/>
<path fill-rule="evenodd" clip-rule="evenodd" d="M19.1292 14.827L19.9988 8.70001L15 17.8457H17.8707L17.0011 23.9726L22 14.827L19.1292 14.827Z" fill="black"/>
</g>
<defs>
<clipPath id="clip0">
<path d="M0 0H24V24H0V0Z" fill="white"/>
</clipPath>
</defs>
</svg>

<svg width="24" height="24" fill="none" xmlns="http://www.w3.org/2000/svg"><g clip-path="url(#clip0)" fill="#000"><path d="M12.746 22.5c-3.935 0-7.506-2.17-9.318-5.664a.746.746 0 01.666-1.095c.281 0 .536.155.666.405A8.966 8.966 0 0012.746 21a9.725 9.725 0 00.754-.028.752.752 0 01.567 1.24.743.743 0 01-.513.258c-.273.02-.543.03-.804.03h-.004zM20.967 7.501a.75.75 0 01-.633-.346 9.004 9.004 0 00-6.2-4.049.752.752 0 01-.626-.856.748.748 0 01.855-.626 10.505 10.505 0 017.235 4.724.751.751 0 01-.631 1.153zM6.749 9.75c-1.654 0-3-1.346-3-3s1.346-3 3-3 3 1.346 3 3-1.346 3-3 3zm0-4.5c-.827 0-1.5.673-1.5 1.5s.673 1.5 1.5 1.5 1.5-.673 1.5-1.5-.673-1.5-1.5-1.5zM6.749 3a.75.75 0 01-.75-.75V.75a.75.75 0 011.5 0v1.5a.75.75 0 01-.75.75zM11.249 7.5a.75.75 0 010-1.5h1.5a.75.75 0 010 1.5h-1.5zM6.749 13.5a.75.75 0 01-.75-.75v-1.5a.75.75 0 011.5 0v1.5a.75.75 0 01-.75.75zM.749 7.5a.75.75 0 010-1.5h1.5a.75.75 0 010 1.5h-1.5zM3.567 4.318a.743.743 0 01-.53-.22l-1.061-1.06a.744.744 0 010-1.06.743.743 0 01.53-.22c.2 0 .389.077.53.22l1.061 1.06a.744.744 0 010 1.06.744.744 0 01-.53.22zM9.931 4.318a.743.743 0 01-.53-.22.743.743 0 01-.22-.53c0-.2.078-.389.22-.53l1.061-1.06a.744.744 0 011.06 0c.142.14.22.33.22.53s-.078.388-.22.53l-1.061 1.06a.744.744 0 01-.53.22zM10.992 11.743a.743.743 0 01-.53-.22L9.4 10.462a.743.743 0 01-.22-.53c0-.2.078-.39.22-.53a.743.743 0 01.53-.22c.2 0 .39.078.53.22l1.061 1.06c.142.142.22.33.22.53s-.078.39-.22.53a.74.74 0 01-.529.22zM2.506 11.743a.743.743 0 01-.53-.22.743.743 0 01-.22-.53c0-.2.078-.39.22-.53l1.061-1.061a.743.743 0 01.53-.22c.2 0 .389.078.53.22.142.14.22.33.22.53s-.078.389-.22.53l-1.061 1.06a.743.743 0 01-.53.22z"/><path fill-rule="evenodd" clip-rule="evenodd" d="M19.13 14.827l.869-6.127L15 17.846h2.87l-.869 6.127L22 14.827h-2.87z"/></g><defs><clipPath id="clip0"><path d="M0 0h24v24H0V0z" fill="#fff"/></clipPath></defs></svg>
